svgs/sharp-light/grid-horizontal.svg

<svg xmlns="http://www.w3.org/2000/svg" viewBox="0 0 448 512"><!--! Font Awesome Pro 6.6.0 by @fontawesome - https://fontawesome.com License - https://fontawesome.com/license (Commercial License) Copyright 2024 Fonticons, Inc. --><path d="M32 160l0 64 64 0 0-64-64 0zM0 128l32 0 64 0 32 0 0 32 0 64 0 32-32 0-64 0L0 256l0-32 0-64 0-32zM32 320l0 64 64 0 0-64-64 0zM0 288l32 0 64 0 32 0 0 32 0 64 0 32-32 0-64 0L0 416l0-32 0-64 0-32zM256 160l-64 0 0 64 64 0 0-64zm-64-32l64 0 32 0 0 32 0 64 0 32-32 0-64 0-32 0 0-32 0-64 0-32 32 0zm0 192l0 64 64 0 0-64-64 0zm-32-32l32 0 64 0 32 0 0 32 0 64 0 32-32 0-64 0-32 0 0-32 0-64 0-32zM416 160l-64 0 0 64 64 0 0-64zm-64-32l64 0 32 0 0 32 0 64 0 32-32 0-64 0-32 0 0-32 0-64 0-32 32 0zm0 192l0 64 64 0 0-64-64 0zm-32-32l32 0 64 0 32 0 0 32 0 64 0 32-32 0-64 0-32 0 0-32 0-64 0-32z"/></svg>

<svg xmlns="http://www.w3.org/2000/svg" viewBox="0 0 448 512"><!--! Font Awesome Pro 6.5.2 by @fontawesome - https://fontawesome.com License - https://fontawesome.com/license (Commercial License) Copyright 2024 Fonticons, Inc. --><path d="M32 160v64H96V160H32zM0 128H32 96h32v32 64 32H96 32 0V224 160 128zM32 320v64H96V320H32zM0 288H32 96h32v32 64 32H96 32 0V384 320 288zM256 160H192v64h64V160zm-64-32h64 32v32 64 32H256 192 160V224 160 128h32zm0 192v64h64V320H192zm-32-32h32 64 32v32 64 32H256 192 160V384 320 288zM416 160H352v64h64V160zm-64-32h64 32v32 64 32H416 352 320V224 160 128h32zm0 192v64h64V320H352zm-32-32h32 64 32v32 64 32H416 352 320V384 320 288z"/></svg>
